fs/star_line_horizontal_3_16_filled.svg

<svg viewBox="0 0 16 16" fill="none" xmlns="http://www.w3.org/2000/svg" height="1em" width="1em">
  <path d="M8.80802 2.1013C8.47789 1.43238 7.52403 1.43238 7.1939 2.1013L5.67281 5.18335L2.27156 5.67758C1.53336 5.78485 1.23861 6.69203 1.77277 7.21271L4.23394 9.61175L3.65294 12.9993C3.52684 13.7345 4.29853 14.2951 4.95879 13.948L8.00096 12.3487L8.4829 12.602C8.18597 12.328 8 11.9355 8 11.4995C8 10.6711 8.67157 9.99951 9.5 9.99951C8.67157 9.99951 8 9.32794 8 8.49951C8 7.67108 8.67157 6.99951 9.5 6.99951C8.67157 6.99951 8 6.32794 8 5.49951C8 4.67108 8.67157 3.99951 9.5 3.99951H9.74485L8.80802 2.1013ZM9.5 4.99951C9.22386 4.99951 9 5.22337 9 5.49951C9 5.77565 9.22386 5.99951 9.5 5.99951H14.5C14.7761 5.99951 15 5.77565 15 5.49951C15 5.22337 14.7761 4.99951 14.5 4.99951H9.5ZM9.5 7.99951C9.22386 7.99951 9 8.22337 9 8.49951C9 8.77565 9.22386 8.99951 9.5 8.99951H14.5C14.7761 8.99951 15 8.77565 15 8.49951C15 8.22337 14.7761 7.99951 14.5 7.99951H9.5ZM9.5 10.9995C9.22386 10.9995 9 11.2234 9 11.4995C9 11.7757 9.22386 11.9995 9.5 11.9995H14.5C14.7761 11.9995 15 11.7757 15 11.4995C15 11.2234 14.7761 10.9995 14.5 10.9995H9.5Z" fill="#212121"/>
</svg>

<svg viewBox="0 0 16 16" fill="none" xmlns="http://www.w3.org/2000/svg" height="1em" width="1em">
  <path d="M8.808 2.101a.9.9 0 0 0-1.614 0L5.673 5.183l-3.401.495a.9.9 0 0 0-.5 1.535l2.462 2.399-.581 3.387a.9.9 0 0 0 1.306.949L8 12.348l.482.254A1.5 1.5 0 0 1 9.5 10a1.5 1.5 0 1 1 0-3 1.5 1.5 0 1 1 0-3h.245l-.937-1.9ZM9.5 5a.5.5 0 0 0 0 1h5a.5.5 0 0 0 0-1h-5Zm0 3a.5.5 0 0 0 0 1h5a.5.5 0 0 0 0-1h-5Zm0 3a.5.5 0 0 0 0 1h5a.5.5 0 1 0 0-1h-5Z" fill="#212121"/>
</svg>
